X:1
T:Title
%%score { ( 1 4 ) | ( 2 3 ) }
L:1/8
Q:1/4=100
M:4/4
K:Eb
V:1 treble nm="Grand Piano"
V:4 treble 
V:2 bass 
V:3 bass 
V:1
 B2 GE [Ge]2 [Bd]c | B2 A2 G2 F2 | [B,EG]2 E-[EB] [Ec]2 d-[Ad] | [Ge]2 [F=A]2 [Ec]2 [DB]2 | %4
w: George~C.~Hugg * * * * *||||
 e2 dc B2 [FA]2 | [EG]2 D-[Dc] E2 D2 | E3 F GA .[CEB]2 | [B,EG]2 [A,DF]2 [G,E]4 | %8
w: ||||
 [GB] [GB]3 [Ge]3 [Ge] | z4 [Ge]4 | c2 c2 e2 [Bd]c | [EGB]3 [B,FA] [B,EG]4 | %12
w: ||||
 [B,EG]2 [B,EG]2 [A,EA]2 [EB]2 | c2 [Af]2 [Ge]2 [Bd][Ac] | [GB]2 [Ge]2 BAGF | %15
w: |||
[M:9/8] E2 D- D [DF]2 E3 |] %16
w: |
V:2
 z2 .[B,E]2 z2 [E,E]2[K:treble] | [G,B,E]2 [A,CF]2 E2 D2 | E,_D,C,[B,,G,] [A,,A,]2 [B,,A,]2 | %3
 [C,C]2 [F,C]2 [F,=A,]2 [B,,B,]2 | [G,B,E]2 [A,CE]2 [G,B,E]2 [D,B,]2 | z4 G,2 z2 | %6
 [E,G,]3 [E,A,D] [B,E]-[C,B,E] z A | B,,2 B,,2 E,4 | [E,E] [E,E]3 [E,B,]3 [E,B,] | %9
 [F,B,]3 [B,D] E2 z2 | [A,EA]2 [A,EA]2 [A,CA]2 z A | B,3 B,, E,4 | E,2 _D,2 C,2 [B,,G,]2 | %13
 z4 B,2 z2 | [E,E]2 [E,B,]2 [E,G,E][F,B,D][G,B,E][A,C] | %15
[M:9/8] B,2 [B,,F,A,]- [B,,F,A,] [B,,A,]2 [E,G,]3 |] %16
V:3
 [E,G,E]2 E,-[E,G,] [E,B,]2 z[K:treble] A | z4 B,4 | x8 | x8 | x8 | %5
 [E,B,]2 [B,,A,]2 [B,,B,]2- [B,,F,B,]2 | z4 .E,2 A,,2 | x8 | x8 | z4 E,4 | z4 z2 [A,E]2 | x8 | x8 | %13
 [A,E]2 [F,B,]2 E,2- [E,E]2 | x8 |[M:9/8] x9 |] %16
V:4
 x8 | x8 | z2 .[A,A]2 z2 .F2 | x8 | x8 | z2 .F2 z4 | x8 | x8 | x8 | [Ad]3 [AB] z2 C2 | x8 | x8 | %12
 x8 | x8 | x8 |[M:9/8] x9 |] %16

